;FLAVOR:Marlin
;TIME:1457
;Filament used: 1.88512m
;Layer height: 0.3
;MINX:44.121
;MINY:42.611
;MINZ:0.28
;MAXX:121.388
;MAXY:82.27
;MAXZ:14.98
;TARGET_MACHINE.NAME:Flying Bear Ghost 6
;Generated with Cura_SteamEngine 5.10.0
M140 S60
M105
M190 S60
M104 S220
M105
M109 S220
M220 S100 ;reset feedrate
M221 S100 ;reset flowrate
G90 ;use absolute coordinates
M82 ;absolute extrusion mode
G28 ;home
G1 Z2 F1500 ;raise z
G92 E0 ;reset extruder

G1 X75 Y5 F5000 ;start position
G1 Z0.28 F1500 ;lower z
G1 E4 F500 ;prime the filament
G1 X180 E10 F500 ;1st line
G1 Y5.4 F5000
G1 X75 E20 F500 ;2nd line
G1 Z2 F1500 ;raise z
G92 E0 ;reset extruder
M82 ;absolute extrusion mode
G92 E0
G92 E0
G1 F2400 E-3
;LAYER_COUNT:50
;LAYER:0
M107
G0 F9000 X45.223 Y43.53 Z0.28
;TYPE:SKIRT
G1 F2400 E0
G1 F1800 X46.086 Y42.922 E0.06145
G1 X46.247 Y42.847 E0.07178
G1 X47.144 Y42.611 E0.12577
G1 X61.629 Y42.611 E0.96887
G1 X63.119 Y43.067 E1.05957
G1 X64.084 Y43.721 E1.12742
G1 X65.055 Y44.927 E1.21754
G1 X67.166 Y50.204 E1.54836
G1 X67.244 Y51.214 E1.60732
G1 X67.245 Y72.611 E2.85274
G1 X95.345 Y72.611 E4.4883
G1 X95.345 Y50.613 E5.7687
G1 X95.574 Y49.851 E5.81501
G1 X97.534 Y44.927 E6.12349
G1 X98.508 Y43.714 E6.21403
G1 X99.475 Y43.065 E6.28182
G1 X100.962 Y42.611 E6.37231
G1 X115.327 Y42.635 E7.20843
G1 X116.059 Y42.749 E7.25155
G1 X116.231 Y42.809 E7.26216
G1 X117.01 Y43.255 E7.3144
G1 X117.55 Y43.713 E7.35562
G1 X118.158 Y44.576 E7.41706
G1 X118.233 Y44.737 E7.4274
G1 X118.469 Y45.634 E7.48139
G1 X118.47 Y48.159 E7.62836
G1 X118.705 Y48.408 E7.64828
G1 X120.066 Y49.781 E7.76081
G1 X120.611 Y50.604 E7.81826
G1 X121.387 Y53.155 E7.97346
G1 X121.388 Y54.277 E8.03877
G1 X120.679 Y56.707 E8.18611
G1 X120.16 Y57.659 E8.24922
G1 X118.915 Y58.847 E8.34938
G1 X118.228 Y59.534 E8.40593
G1 X117.321 Y60.12 E8.46878
G1 X115.474 Y60.636 E8.5804
G1 X115.474 Y75.39 E9.43916
G1 X115.043 Y77.552 E9.56748
G1 X114.607 Y78.417 E9.62386
G1 X113.791 Y79.636 E9.70924
G1 X113.154 Y80.376 E9.76607
G1 X111.269 Y81.598 E9.89683
G1 X110.727 Y81.845 E9.9315
G1 X108.592 Y82.27 E10.0582
G1 X63.472 Y82.27 E12.68442
G1 X61.293 Y81.837 E12.81373
G1 X60.487 Y81.432 E12.86624
G1 X59.1 Y80.496 E12.96363
G1 X58.474 Y79.946 E13.01213
G1 X57.34 Y78.221 E13.13229
G1 X57.014 Y77.543 E13.17608
G1 X56.585 Y75.384 E13.3042
G1 X56.584 Y59.31 E14.23979
G1 X56.36 Y59.534 E14.25823
G1 X55.453 Y60.12 E14.32108
G1 X52.914 Y60.828 E14.4745
G1 X51.748 Y60.883 E14.54244
G1 X49.257 Y60.156 E14.69348
G1 X48.346 Y59.677 E14.75339
G1 X46.413 Y57.756 E14.91201
G1 X45.841 Y56.882 E14.97281
G1 X45.091 Y54.295 E15.12959
G1 X45.091 Y53.198 E15.19344
G1 X45.743 Y50.959 E15.32917
G1 X45.545 Y50.837 E15.34271
G1 X45.04 Y50.409 E15.38124
G1 X44.432 Y49.546 E15.44268
G1 X44.357 Y49.385 E15.45302
G1 X44.121 Y48.482 E15.50735
G1 X44.139 Y45.827 E15.66188
G1 X44.259 Y45.021 E15.70932
G1 X44.319 Y44.849 E15.71992
G1 X44.765 Y44.07 E15.77217
G1 X45.223 Y43.53 E15.81338
G0 F9000 X45.563 Y43.902
G1 F1800 X46.374 Y43.331 E15.87111
G1 X47.21 Y43.111 E15.92143
G1 X61.555 Y43.111 E16.75638
G1 X62.899 Y43.522 E16.83818
G1 X63.743 Y44.094 E16.89753
G1 X64.619 Y45.182 E16.97883
G1 X66.673 Y50.317 E17.30074
G1 X66.745 Y51.252 E17.35532
G1 X66.745 Y73.111 E18.62763
G1 X95.845 Y73.111 E20.3214
G1 X95.845 Y50.687 E21.6266
G1 X96.053 Y49.995 E21.66865
G1 X97.97 Y45.183 E21.97015
G1 X98.85 Y44.087 E22.05196
G1 X99.693 Y43.521 E22.11106
G1 X101.036 Y43.111 E22.19279
G1 X115.25 Y43.129 E23.02012
G1 X115.982 Y43.243 E23.06324
G1 X116.722 Y43.667 E23.11288
G1 X117.178 Y44.053 E23.14765
G1 X117.749 Y44.864 E23.20538
G1 X117.969 Y45.7 E23.2557
G1 X117.97 Y48.358 E23.41041
G1 X118.341 Y48.751 E23.44187
G1 X119.676 Y50.098 E23.55225
G1 X120.155 Y50.821 E23.60273
G1 X120.887 Y53.228 E23.74917
G1 X120.888 Y54.206 E23.80609
G1 X120.214 Y56.516 E23.94615
G1 X119.759 Y57.351 E24.0015
G1 X118.561 Y58.493 E24.09784
G1 X117.909 Y59.145 E24.15151
G1 X117.115 Y59.658 E24.20653
G1 X114.875 Y60.283 E24.34189
G1 X114.974 Y60.782 E24.3715
G1 X114.974 Y75.342 E25.21897
G1 X114.566 Y77.388 E25.3404
G1 X114.191 Y78.139 E25.38926
G1 X113.375 Y79.358 E25.47464
G1 X112.823 Y79.995 E25.5237
G1 X111.061 Y81.143 E25.64611
G1 X110.57 Y81.367 E25.67752
G1 X108.544 Y81.77 E25.79775
G1 X63.519 Y81.77 E28.41844
G1 X61.46 Y81.361 E28.54063
G1 X60.712 Y80.985 E28.58936
G1 X59.381 Y80.082 E28.68297
G1 X58.855 Y79.615 E28.72392
G1 X57.791 Y78.004 E28.83629
G1 X57.491 Y77.38 E28.87659
G1 X57.085 Y75.337 E28.99783
G1 X57.084 Y58.976 E29.95012
G1 X57.048 Y58.585 E29.97298
G1 X56.946 Y58.24 E29.99392
G1 X56.041 Y59.145 E30.06841
G1 X55.247 Y59.658 E30.12344
G1 X52.831 Y60.332 E30.26943
G1 X51.809 Y60.38 E30.32898
G1 X49.444 Y59.69 E30.47237
G1 X48.646 Y59.27 E30.52486
G1 X46.802 Y57.438 E30.67616
G1 X46.3 Y56.671 E30.72951
G1 X45.591 Y54.225 E30.87774
G1 X45.591 Y53.269 E30.93339
G1 X46.333 Y50.721 E31.08785
G1 X45.868 Y50.455 E31.11904
G1 X45.412 Y50.069 E31.15381
G1 X44.841 Y49.258 E31.21154
G1 X44.621 Y48.418 E31.26208
G1 X44.639 Y45.83 E31.41272
G1 X44.753 Y45.098 E31.45584
G1 X45.177 Y44.358 E31.50548
G1 X45.563 Y43.902 E31.54026
G0 F9000 X45.901 Y44.276
G1 F1800 X45.589 Y44.644 E31.56834
G1 X45.233 Y45.266 E31.61005
G1 X45.133 Y45.907 E31.64781
G1 X45.121 Y48.354 E31.79024
G1 X45.302 Y49.044 E31.83176
G1 X45.786 Y49.731 E31.88068
G1 X46.154 Y50.043 E31.90876
G1 X46.776 Y50.399 E31.95047
G1 X47.117 Y50.452 E31.97056
G1 X46.776 Y50.989 E32.00758
G1 X46.091 Y53.34 E32.15012
G1 X46.091 Y54.155 E32.19755
G1 X46.759 Y56.46 E32.33724
G1 X47.191 Y57.12 E32.38315
G1 X48.946 Y58.863 E32.52712
G1 X49.631 Y59.224 E32.57219
G1 X51.87 Y59.877 E32.70794
G1 X52.748 Y59.836 E32.7591
G1 X55.041 Y59.196 E32.89766
G1 X55.722 Y58.756 E32.94485
G1 X57.132 Y57.346 E33.06092
G1 X57.409 Y58.043 E33.10457
G1 X57.542 Y58.493 E33.13189
G1 X57.584 Y58.952 E33.15871
G1 X57.585 Y75.29 E34.10967
G1 X57.968 Y77.217 E34.22403
G1 X58.242 Y77.787 E34.26084
G1 X59.236 Y79.285 E34.36548
G1 X59.662 Y79.668 E34.39882
G1 X60.993 Y80.571 E34.49244
G1 X61.626 Y80.885 E34.53357
G1 X63.566 Y81.27 E34.64869
G1 X108.496 Y81.27 E37.26385
G1 X110.415 Y80.888 E37.37774
G1 X110.854 Y80.688 E37.40581
G1 X112.492 Y79.614 E37.51982
G1 X112.959 Y79.08 E37.56111
G1 X113.775 Y77.861 E37.64649
G1 X114.089 Y77.225 E37.68778
G1 X114.474 Y75.294 E37.80238
G1 X114.474 Y60.829 E38.64432
G1 X114.28 Y59.852 E38.7023
G1 X114.616 Y59.836 E38.72188
G1 X116.909 Y59.196 E38.86045
G1 X117.59 Y58.756 E38.90764
G1 X118.207 Y58.139 E38.95842
G1 X119.358 Y57.043 E39.05093
G1 X119.749 Y56.325 E39.09852
G1 X120.388 Y54.135 E39.2313
G1 X120.387 Y53.302 E39.27979
G1 X119.698 Y51.037 E39.41759
G1 X119.286 Y50.415 E39.46101
G1 X117.977 Y49.094 E39.56926
G1 X117.674 Y48.773 E39.59495
G1 X117.404 Y48.577 E39.61437
G1 X117.47 Y48.199 E39.63671
G1 X117.469 Y45.766 E39.77832
G1 X117.288 Y45.078 E39.81973
G1 X116.804 Y44.391 E39.86864
G1 X116.436 Y44.079 E39.89672
G1 X115.814 Y43.723 E39.93844
G1 X115.173 Y43.623 E39.9762
G1 X101.11 Y43.611 E40.79474
G1 X99.911 Y43.977 E40.86771
G1 X99.192 Y44.46 E40.91812
G1 X98.406 Y45.439 E40.9912
G1 X96.532 Y50.139 E41.28571
G1 X96.345 Y50.761 E41.32351
G1 X96.345 Y73.611 E42.6535
G1 X66.245 Y73.611 E44.40548
G1 X66.245 Y51.252 E45.70689
G1 X66.181 Y50.433 E45.7547
G1 X64.183 Y45.438 E46.06783
G1 X63.4 Y44.465 E46.14053
G1 X62.681 Y43.978 E46.19107
G1 X61.481 Y43.611 E46.26411
G1 X47.276 Y43.611 E47.09092
G1 X46.588 Y43.792 E47.13233
G1 X45.901 Y44.276 E47.18124
G0 F9000 X46.241 Y44.648
G1 F1800 X45.999 Y44.934 E47.20305
G1 X45.713 Y45.434 E47.23658
G1 X45.627 Y45.984 E47.26898
G1 X45.621 Y48.289 E47.40314
G1 X45.763 Y48.83 E47.4357
G1 X46.158 Y49.391 E47.47563
G1 X46.444 Y49.633 E47.49744
G1 X46.944 Y49.919 E47.53097
G1 X47.494 Y50.005 E47.56337
G1 X48.198 Y50.011 E47.60434
G1 X47.57 Y50.671 E47.65737
G1 X47.236 Y51.197 E47.69364
G1 X46.591 Y53.411 E47.82786
G1 X46.591 Y54.085 E47.86709
G1 X47.218 Y56.249 E47.99823
G1 X47.58 Y56.802 E48.0367
G1 X49.246 Y58.456 E48.17334
G1 X49.818 Y58.758 E48.21099
G1 X51.931 Y59.374 E48.3391
G1 X52.665 Y59.34 E48.38187
G1 X54.835 Y58.734 E48.51301
G1 X55.403 Y58.367 E48.55237
G1 X56.97 Y56.8 E48.68135
G1 X57.246 Y56.276 E48.71583
G1 X57.883 Y57.882 E48.81639
G1 X58.035 Y58.398 E48.8477
G1 X58.084 Y58.928 E48.87868
G1 X58.085 Y75.243 E49.8283
G1 X58.445 Y77.055 E49.93583
G1 X58.659 Y77.511 E49.96514
G1 X59.618 Y78.956 E50.06609
G1 X59.996 Y79.296 E50.09568
G1 X61.272 Y80.156 E50.18524
G1 X61.792 Y80.409 E50.2189
G1 X63.613 Y80.77 E50.32696
G1 X108.448 Y80.77 E52.93659
G1 X110.258 Y80.41 E53.044
G1 X110.646 Y80.233 E53.06883
G1 X112.159 Y79.235 E53.17432
G1 X112.543 Y78.802 E53.20801
G1 X113.359 Y77.583 E53.29339
G1 X113.612 Y77.062 E53.3271
G1 X113.974 Y75.246 E53.43488
G1 X113.974 Y60.876 E54.27129
G1 X113.668 Y59.336 E54.36268
G1 X113.883 Y59.37 E54.37535
G1 X114.533 Y59.34 E54.41322
G1 X116.703 Y58.734 E54.54436
G1 X117.271 Y58.367 E54.58372
G1 X117.853 Y57.785 E54.63163
G1 X118.957 Y56.734 E54.72035
G1 X119.284 Y56.134 E54.76013
G1 X119.888 Y54.064 E54.88563
G1 X119.887 Y53.375 E54.92574
G1 X119.242 Y51.254 E55.05477
G1 X118.896 Y50.732 E55.09122
G1 X117.613 Y49.437 E55.19733
G1 X117.31 Y49.116 E55.22302
G1 X116.814 Y48.781 E55.25786
G1 X116.906 Y48.521 E55.27391
G1 X116.97 Y48.153 E55.29565
G1 X116.969 Y45.832 E55.43075
G1 X116.827 Y45.292 E55.46325
G1 X116.432 Y44.731 E55.50318
G1 X116.146 Y44.489 E55.52499
G1 X115.646 Y44.203 E55.55852
G1 X115.096 Y44.117 E55.59092
G1 X101.184 Y44.111 E56.40067
G1 X100.127 Y44.434 E56.465
G1 X99.535 Y44.831 E56.50649
G1 X98.842 Y45.695 E56.57096
G1 X97.011 Y50.283 E56.85848
G1 X96.845 Y50.835 E56.89203
G1 X96.845 Y74.111 E58.24682
G1 X65.745 Y74.111 E60.057
G1 X65.745 Y51.252 E61.38751
G1 X65.689 Y50.549 E61.42856
G1 X63.747 Y45.694 E61.73292
G1 X63.057 Y44.836 E61.797
G1 X62.463 Y44.434 E61.83875
G1 X61.407 Y44.111 E61.90303
G1 X47.342 Y44.111 E62.72168
G1 X46.802 Y44.253 E62.75418
G1 X46.241 Y44.648 E62.79412
G0 F9000 X46.579 Y45.022
G1 F1800 X47.016 Y44.714 E62.82524
G1 X47.408 Y44.611 E62.84883
G1 X61.333 Y44.611 E63.65933
G1 X62.245 Y44.89 E63.71485
G1 X62.714 Y45.207 E63.7478
G1 X63.311 Y45.95 E63.80327
G1 X65.197 Y50.665 E64.09885
G1 X65.245 Y51.252 E64.13313
G1 X65.245 Y74.611 E65.49275
G1 X97.345 Y74.611 E67.36114
G1 X97.345 Y50.909 E68.74072
G1 X97.49 Y50.427 E68.77001
G1 X99.278 Y45.951 E69.05056
G1 X99.877 Y45.204 E69.10629
G1 X100.345 Y44.89 E69.13909
G1 X101.258 Y44.611 E69.19466
G1 X115.019 Y44.611 E69.99562
G1 X115.478 Y44.683 E70.02266
G1 X115.898 Y44.923 E70.05082
G1 X116.058 Y45.069 E70.06343
G1 X116.366 Y45.506 E70.09455
G1 X116.469 Y45.898 E70.11814
G1 X116.47 Y48.107 E70.24671
G1 X116.413 Y48.435 E70.26609
G1 X116.291 Y48.746 E70.28553
G1 X116.045 Y49.05 E70.3083
G1 X116.515 Y49.182 E70.33671
G1 X116.983 Y49.498 E70.36958
G1 X117.249 Y49.78 E70.39214
G1 X118.506 Y51.048 E70.49607
G1 X118.786 Y51.471 E70.52559
G1 X119.387 Y53.448 E70.64586
G1 X119.388 Y53.993 E70.67759
G1 X118.819 Y55.943 E70.79582
G1 X118.556 Y56.425 E70.82778
G1 X117.499 Y57.431 E70.91271
G1 X116.952 Y57.978 E70.95774
G1 X116.497 Y58.272 E70.98927
G1 X114.449 Y58.844 E71.11304
G1 X113.86 Y58.871 E71.14735
G1 X112.765 Y58.551 E71.21376
G1 X112.982 Y58.887 E71.23704
G1 X113.136 Y59.225 E71.25866
G1 X113.474 Y60.924 E71.35948
G1 X113.474 Y75.198 E72.19031
G1 X113.135 Y76.9 E72.29132
G1 X112.943 Y77.305 E72.3174
G1 X112.127 Y78.524 E72.40279
G1 X111.829 Y78.854 E72.42867
G1 X110.439 Y79.778 E72.52582
G1 X110.103 Y79.931 E72.54731
G1 X108.4 Y80.27 E72.64837
G1 X63.66 Y80.27 E75.25248
G1 X61.955 Y79.932 E75.35365
G1 X61.55 Y79.74 E75.37974
G1 X60.331 Y78.924 E75.46512
G1 X60 Y78.626 E75.49104
G1 X59.076 Y77.234 E75.58829
G1 X58.923 Y76.897 E75.60983
G1 X58.585 Y75.196 E75.71077
G1 X58.584 Y58.903 E76.65911
G1 X58.528 Y58.302 E76.69424
G1 X58.357 Y57.721 E76.7295
G1 X57.175 Y54.738 E76.91626
G1 X56.818 Y56.017 E76.99355
G1 X56.565 Y56.497 E77.02513
G1 X55.084 Y57.978 E77.14704
G1 X54.629 Y58.272 E77.17857
G1 X52.581 Y58.844 E77.30233
G1 X51.992 Y58.871 E77.33665
G1 X50.007 Y58.292 E77.457
G1 X49.545 Y58.048 E77.48741
G1 X47.969 Y56.484 E77.61665
G1 X47.677 Y56.038 E77.64768
G1 X47.091 Y54.015 E77.77027
G1 X47.091 Y53.482 E77.80129
G1 X47.696 Y51.405 E77.92721
G1 X47.965 Y50.981 E77.95643
G1 X49.365 Y49.511 E78.07459
G1 X47.571 Y49.511 E78.17901
G1 X47.112 Y49.439 E78.20605
G1 X46.692 Y49.199 E78.23421
G1 X46.532 Y49.053 E78.24682
G1 X46.224 Y48.616 E78.27794
G1 X46.121 Y48.224 E78.30153
G1 X46.121 Y46.061 E78.42742
G1 X46.193 Y45.602 E78.45447
G1 X46.433 Y45.182 E78.48262
G1 X46.579 Y45.022 E78.49523
G1 F2400 E75.49523
G0 F9000 X50.063 Y50.223
G1 F2400 E78.49523
G1 F1800 X50.267 Y50.1 E78.5091
G1 X52.121 Y49.579 E78.62119
G1 X52.365 Y49.579 E78.63539
G1 X54.219 Y50.1 E78.74748
G1 X54.423 Y50.223 E78.76135
G1 X55.763 Y51.635 E78.87465
G1 X55.869 Y51.82 E78.88706
G1 X56.385 Y53.597 E78.99476
G1 X56.386 Y53.843 E79.00908
G1 X55.868 Y55.696 E79.12107
G1 X55.753 Y55.893 E79.13435
G1 X54.413 Y57.233 E79.24465
G1 X54.216 Y57.348 E79.25793
G1 X52.363 Y57.866 E79.36992
G1 X52.116 Y57.865 E79.38429
G1 X50.336 Y57.346 E79.49221
G1 X50.145 Y57.234 E79.5051
G1 X48.71 Y55.811 E79.62273
G1 X48.595 Y55.616 E79.63591
G1 X48.091 Y53.875 E79.7414
G1 X48.091 Y53.624 E79.75601
G1 X48.617 Y51.819 E79.86544
G1 X48.723 Y51.635 E79.8778
G1 X50.063 Y50.223 E79.99111
G1 F2400 E76.99111
G0 F9000 X106.914 Y54.135
G1 F2400 E79.99111
G1 F1800 X107.035 Y54.464 E80.01151
G1 X107.29 Y54.693 E80.03146
G1 X107.926 Y54.851 E80.0696
G1 X108.174 Y54.851 E80.08404
G1 X107.966 Y54.142 E80.12704
G1 X107.966 Y53.313 E80.1753
G1 X108.644 Y50.989 E80.3162
G1 X108.947 Y50.511 E80.34915
G1 X108.171 Y50.511 E80.39431
G1 X107.005 Y53.482 E80.58008
G1 X106.914 Y54.135 E80.61846
G0 F9000 X106.402 Y54.191
G1 F1800 X106.607 Y54.752 E80.65322
G1 X107.049 Y55.148 E80.68776
G1 X107.865 Y55.351 E80.73671
G1 X108.446 Y55.351 E80.77052
G1 X108.867 Y55.435 E80.79551
G1 X108.466 Y54.069 E80.87837
G1 X108.466 Y53.384 E80.91825
G1 X109.104 Y51.197 E81.05085
G1 X109.438 Y50.671 E81.08711
G1 X110.066 Y50.011 E81.14014
G1 X107.83 Y50.011 E81.27029
G1 X106.518 Y53.355 E81.47937
G1 X106.402 Y54.191 E81.5285
G0 F9000 X105.89 Y54.248
G1 F1800 X106.18 Y55.04 E81.57759
G1 X106.808 Y55.603 E81.62668
G1 X107.804 Y55.851 E81.68642
G1 X108.399 Y55.851 E81.72105
G1 X109.579 Y56.085 E81.79107
G1 X108.966 Y53.996 E81.91779
G1 X108.966 Y53.455 E81.94928
G1 X109.564 Y51.405 E82.07357
G1 X109.833 Y50.981 E82.1028
G1 X111.233 Y49.511 E82.22096
G1 X107.489 Y49.511 E82.43888
G1 X106.031 Y53.228 E82.67127
G1 X105.89 Y54.248 E82.73121
G0 F9000 X104.866 Y54.358
G1 F1800 X105.328 Y55.618 E82.80932
G1 X106.324 Y56.513 E82.88726
G1 X107.682 Y56.851 E82.96872
G1 X108.305 Y56.851 E83.00498
G1 X109.791 Y57.146 E83.09316
G1 X109.953 Y57.213 E83.10336
G1 X111.171 Y58.029 E83.1887
G1 X111.295 Y58.153 E83.1989
G1 X112.111 Y59.372 E83.28428
G1 X112.178 Y59.534 E83.29449
G1 X112.474 Y61.02 E83.38268
G1 X112.474 Y75.102 E84.20233
G1 X112.178 Y76.587 E84.29046
G1 X112.111 Y76.749 E84.30066
G1 X111.295 Y77.968 E84.38605
G1 X111.171 Y78.092 E84.39625
G1 X109.953 Y78.908 E84.48159
G1 X109.791 Y78.975 E84.49179
G1 X108.305 Y79.27 E84.57997
G1 X63.754 Y79.27 E87.17307
G1 X62.268 Y78.975 E87.26125
G1 X62.106 Y78.908 E87.27146
G1 X60.887 Y78.092 E87.35684
G1 X60.763 Y77.968 E87.36705
G1 X59.947 Y76.749 E87.45243
G1 X59.88 Y76.587 E87.46263
G1 X59.585 Y75.102 E87.55076
G1 X59.584 Y58.851 E88.49665
G1 X59.514 Y58.112 E88.53986
G1 X59.305 Y57.399 E88.5831
G1 X55.784 Y48.511 E89.13955
G1 X47.571 Y48.511 E89.61758
G1 X47.387 Y48.471 E89.62854
G1 X47.234 Y48.36 E89.63955
G1 X47.121 Y48.159 E89.65297
G1 X47.121 Y46.061 E89.77508
G1 X47.161 Y45.877 E89.78604
G1 X47.272 Y45.724 E89.79704
G1 X47.473 Y45.611 E89.81047
G1 X61.185 Y45.611 E90.60858
G1 X61.809 Y45.802 E90.64656
G1 X62.028 Y45.95 E90.66194
G1 X62.439 Y46.461 E90.70011
G1 X64.213 Y50.897 E90.97819
G1 X64.245 Y51.252 E90.99894
G1 X64.245 Y75.405 E92.40477
G1 X64.278 Y75.525 E92.41202
G1 X64.452 Y75.611 E92.42331
G1 X98.138 Y75.611 E94.38401
G1 X98.312 Y75.528 E94.39524
